**kern	**kern	**dynam
*part1	*part1	*part1
*staff2	*staff1	*
*I"Piano	*	*
*clefF4	*clefG2	*
*k[f#c#g#d#]	*k[f#c#g#d#]	*
=1	=1	=1
*	*^	*
!	!	!	!LO:DY:a
4AAA 4AA	4cc#	12c#L	p < p
.	.	12e	.
.	.	12aJ	.
4FFF# 4FF#	4dd#	12d#L	mf
.	.	12a	[
.	.	12bJ	.
=	=	=	=
4GGG# 4GG#	4ee	12eL	.
.	.	12g#	.
.	.	12bJ	.
4AAA 4AA	4cc#	12c#L	.
.	.	12e	.
.	.	12f#J	.
*	*v	*v	*
=	=	=
*^	*	*
!	!	!LO:TX:b:i:t=dim.	!
12F#L	[2BBB [2BB	2f#	.
12B	.	.	.
12eJ	.	.	.
12F#L	.	.	.
12B	.	.	.
12eJ	.	.	.
*v	*v	*	*
=	=	=
*	*^	*
2BBB] 2BB]	2b	12AL	.
.	.	12d#	.
.	.	12f#J	.
.	.	12AL	.
.	.	12d#	.
.	.	12f#J	.
*	*v	*v	*
=	=	=
[12EEL	4e	p
[12BB	.	.
[12EJ	.	.
4EE_ 4BB_ 4E_	12G#L	.
.	12B	.
.	12eJ	.
=	=	=
4EE_ 4BB_ 4E_	12g#L	.
.	12e	.
.	12BJ	.
(((12EEL] 12BB] 12E]	4G#	.
12E	.	.
12BBJ	.	.
=:|!	=:|!	=:|!
[4EE))) [4BB [4E	12g#L	.
.	12e	.
.	12BJ	.
12EEL] 12BB] 12E]	4G#	.
12E	.	.
12BBJ	.	.
=	=	=
2EE; 2BB 2E	2G#; 2B 2e 2g#	.
==	==	==
*-	*-	*-
!!!system-decoration: {(s1,s2)}
